material/.icons/material/target.svg

<svg xmlns="http://www.w3.org/2000/svg" viewBox="0 0 24 24"><path d="M11 2v2.07A8.002 8.002 0 004.07 11H2v2h2.07A8.002 8.002 0 0011 19.93V22h2v-2.07A8.002 8.002 0 0019.93 13H22v-2h-2.07A8.002 8.002 0 0013 4.07V2m-2 4.08V8h2V6.09c2.5.41 4.5 2.41 4.92 4.91H16v2h1.91c-.41 2.5-2.41 4.5-4.91 4.92V16h-2v1.91C8.5 17.5 6.5 15.5 6.08 13H8v-2H6.09C6.5 8.5 8.5 6.5 11 6.08M12 11a1 1 0 00-1 1 1 1 0 001 1 1 1 0 001-1 1 1 0 00-1-1z"/></svg>

<?xml version="1.0" encoding="UTF-8"?><!DOCTYPE svg PUBLIC "-//W3C//DTD SVG 1.1//EN" "http://www.w3.org/Graphics/SVG/1.1/DTD/svg11.dtd"><svg xmlns="http://www.w3.org/2000/svg" xmlns:xlink="http://www.w3.org/1999/xlink" version="1.1" id="mdi-target" width="24" height="24" viewBox="0 0 24 24"><path d="M11,2V4.07C7.38,4.53 4.53,7.38 4.07,11H2V13H4.07C4.53,16.62 7.38,19.47 11,19.93V22H13V19.93C16.62,19.47 19.47,16.62 19.93,13H22V11H19.93C19.47,7.38 16.62,4.53 13,4.07V2M11,6.08V8H13V6.09C15.5,6.5 17.5,8.5 17.92,11H16V13H17.91C17.5,15.5 15.5,17.5 13,17.92V16H11V17.91C8.5,17.5 6.5,15.5 6.08,13H8V11H6.09C6.5,8.5 8.5,6.5 11,6.08M12,11A1,1 0 0,0 11,12A1,1 0 0,0 12,13A1,1 0 0,0 13,12A1,1 0 0,0 12,11Z" /></svg>
